packages/core/src/svgs/dsla.svg

<svg width="24" height="24" viewBox="0 0 24 24" fill="none" xmlns="http://www.w3.org/2000/svg">
<g clip-path="url(#clip0_31_9571)">
<path d="M0 0H24V24H0V0Z" fill="#F0F3FA"/>
<path opacity="0.7" d="M5.81147 7.66289L5.1429 8.80717C4.69168 9.5886 4.39882 10.4513 4.28105 11.3459C4.16328 12.2405 4.22291 13.1496 4.45652 14.0212C4.69014 14.8927 5.09317 15.7098 5.64259 16.4255C6.19201 17.1413 6.87706 17.7419 7.65862 18.1929L8.8029 18.8529C9.58433 19.3041 10.447 19.597 11.3416 19.7147C12.2362 19.8325 13.1453 19.7729 14.0169 19.5393C14.8885 19.3056 15.7055 18.9026 16.4213 18.3532C17.1371 17.8038 17.7376 17.1187 18.1886 16.3372L18.8486 15.1929C19.2998 14.4115 19.5927 13.5488 19.7105 12.6542C19.8282 11.7595 19.7686 10.8505 19.535 9.9789C19.3014 9.10733 18.8983 8.29031 18.3489 7.57451C17.7995 6.85872 17.1145 6.25817 16.3329 5.80717L15.1886 5.14717C14.4072 4.69595 13.5445 4.4031 12.6499 4.28533C11.7553 4.16756 10.8462 4.22718 9.97463 4.4608C9.10305 4.69441 8.28603 5.09744 7.57024 5.64686C6.85445 6.19628 6.2539 6.88133 5.8029 7.66289H5.81147Z" fill="#FFE1A5"/>
<path opacity="0.9" d="M12.9728 4.75733H11.0271C10.2032 4.75676 9.38725 4.9187 8.626 5.23386C7.86476 5.54903 7.17314 6.01123 6.59075 6.59402C6.00836 7.17681 5.54663 7.86874 5.23198 8.6302C4.91734 9.39166 4.75596 10.2077 4.75709 11.0316V12.9773C4.75709 16.4402 7.55994 19.243 11.0228 19.243H12.9685C16.4314 19.243 19.2342 16.4402 19.2342 12.9773V11.0316C19.2342 7.56875 16.4314 4.7659 12.9685 4.7659L12.9728 4.75733Z" fill="#F69D88"/>
<path d="M12 19.0971C13.8823 19.0971 15.6874 18.3494 17.0184 17.0184C18.3494 15.6874 19.0971 13.8823 19.0971 12C19.0971 10.1177 18.3494 8.31251 17.0184 6.98154C15.6874 5.65056 13.8823 4.90283 12 4.90283C10.1177 4.90283 8.31251 5.65056 6.98154 6.98154C5.65056 8.31251 4.90283 10.1177 4.90283 12C4.90283 13.8823 5.65056 15.6874 6.98154 17.0184C8.31251 18.3494 10.1177 19.0971 12 19.0971Z" fill="#2196F3"/>
<path d="M15 6.85693L12.8143 10.5941L14.9614 11.8884L9 17.1426L11.16 13.3841L9 12.1284L15 6.85693Z" fill="#F0F3FA"/>
</g>
<defs>
<clipPath id="clip0_31_9571">
<rect width="24" height="24" fill="white"/>
</clipPath>
</defs>
</svg>

<svg xmlns="http://www.w3.org/2000/svg" width="24" height="24" fill="none" viewBox="0 0 24 24"><g clip-path="url(#a)"><path fill="#F0F3FA" d="M0 0h24v24H0z"/><path fill="#FFE1A5" d="m5.811 7.663-.668 1.144a6.87 6.87 0 0 0 2.516 9.386l1.144.66a6.87 6.87 0 0 0 9.386-2.516l.66-1.144a6.87 6.87 0 0 0-2.516-9.386l-1.144-.66a6.87 6.87 0 0 0-9.386 2.516z" opacity=".7"/><path fill="#F69D88" d="M12.973 4.757h-1.946a6.266 6.266 0 0 0-6.27 6.275v1.945a6.263 6.263 0 0 0 6.266 6.266h1.946a6.263 6.263 0 0 0 6.265-6.266v-1.945a6.263 6.263 0 0 0-6.266-6.266z" opacity=".9"/><path fill="#2196F3" d="M12 19.097a7.097 7.097 0 1 0 0-14.194 7.097 7.097 0 0 0 0 14.194"/><path fill="#F0F3FA" d="m15 6.857-2.186 3.737 2.147 1.294L9 17.143l2.16-3.759L9 12.128z"/></g><defs><clipPath id="a"><path fill="#fff" d="M0 0h24v24H0z"/></clipPath></defs></svg>
